X:268
T: Das deutsche Gloria
N: A0622
O: Europa, Mitteleuropa, Deutschland
N: Schumanns Gsgb 1539 fol 87.
R: Romanze, Ballade, Lied, religioeses Lied
M: 3/1
L: 1/2
K: F
F | A2Bc2B | A2GA2A | A2GBAG | FDEF2
F | A2Bc2B | A2GA2A | A2GBAG | FDEF2
F | F2GB2A | G2FG2G | A2Bc2B | A2GA2
F | GGBA2G | F2EF2

@@@ Tune index: 581
